X:88
%%etbk:tnset id:31,pos:1,rep:3x,ant:
%%etbk:wsite http://www.thesession.org/tunes/display/964
%%etbk:pldat 2014-12-07T13:04
T: Knocknagree, The
Z: Piano Box Version by Martin Fleischmann
H: Created 2013-02-19 /  Last Modified 2014-12-07
M: 4/4
L: 1/8
R: reel
K: Dmaj
|: "D"!1!D2!2!F!3!A !1!D!3!A!2!F!1!A | !3!d!5!fed "A"!2!cABc | "D"!4!d2cA !2!(3Bcd !1!A!2!F | "A"!3!GBAF !3!GF!1!E!2!F | 
"D"!1!D2!2!F!3!A !1!D!3!A!2!F!1!A | !3!d!5!fed "A"!2!cABc | "D"!4!d2cA !2!(3Bcd !1!A!2!F | "A"!3!GBAG "D"!2!F!1!DD2:|
|: "D"!4!aa!2!fa !1!da!2!f!4!a | "A"!4!gfe!1!d !2!B!4!d!1!A2 | "D"!4!aa!2!fa !1!da!2!f!4!a  | "A"!5!bg!1!e!4!a "D"!2!f!1!dd2 | 
"D"!4!aa!2!fa !1!da!2!f!4!a  | "A"!4!gfe!1!d !2!Bd!1!A!3!f | "D"!5!a!3!f!1!e!3!c !4!d!2!B!1!A!2!F| "A"!3!GBAG "D"!2!F!1!DD2:|


